images/50879723.svg

<?xml version="1.0" encoding="UTF-8"?>
<svg xmlns="http://www.w3.org/2000/svg" xmlns:xlink="http://www.w3.org/1999/xlink" width="300pt" height="300pt" viewBox="0 0 300 300" version="1.1">
<defs>
<g>
<symbol overflow="visible" id="glyph0-0">
<path style="stroke:none;" d="M 0.796875 2.828125 L 0.796875 -11.28125 L 8.796875 -11.28125 L 8.796875 2.828125 Z M 1.703125 1.9375 L 7.90625 1.9375 L 7.90625 -10.390625 L 1.703125 -10.390625 Z M 1.703125 1.9375 "/>
</symbol>
<symbol overflow="visible" id="glyph0-1">
<path style="stroke:none;" d="M 6.3125 -10.59375 C 5.164062 -10.59375 4.253906 -10.164062 3.578125 -9.3125 C 2.898438 -8.457031 2.5625 -7.296875 2.5625 -5.828125 C 2.5625 -4.359375 2.898438 -3.195312 3.578125 -2.34375 C 4.253906 -1.488281 5.164062 -1.0625 6.3125 -1.0625 C 7.457031 -1.0625 8.363281 -1.488281 9.03125 -2.34375 C 9.695312 -3.195312 10.03125 -4.359375 10.03125 -5.828125 C 10.03125 -7.296875 9.695312 -8.457031 9.03125 -9.3125 C 8.363281 -10.164062 7.457031 -10.59375 6.3125 -10.59375 Z M 6.3125 -11.875 C 7.945312 -11.875 9.253906 -11.328125 10.234375 -10.234375 C 11.210938 -9.140625 11.703125 -7.671875 11.703125 -5.828125 C 11.703125 -3.984375 11.210938 -2.507812 10.234375 -1.40625 C 9.253906 -0.3125 7.945312 0.234375 6.3125 0.234375 C 4.664062 0.234375 3.351562 -0.3125 2.375 -1.40625 C 1.394531 -2.507812 0.90625 -3.984375 0.90625 -5.828125 C 0.90625 -7.671875 1.394531 -9.140625 2.375 -10.234375 C 3.351562 -11.328125 4.664062 -11.875 6.3125 -11.875 Z M 6.3125 -11.875 "/>
</symbol>
<symbol overflow="visible" id="glyph0-2">
<path style="stroke:none;" d="M 1.578125 -11.671875 L 3.703125 -11.671875 L 8.875 -1.90625 L 8.875 -11.671875 L 10.40625 -11.671875 L 10.40625 0 L 8.28125 0 L 3.109375 -9.765625 L 3.109375 0 L 1.578125 0 Z M 1.578125 -11.671875 "/>
</symbol>
<symbol overflow="visible" id="glyph0-3">
<path style="stroke:none;" d="M 1.578125 -11.671875 L 3.15625 -11.671875 L 3.15625 -6.890625 L 8.890625 -6.890625 L 8.890625 -11.671875 L 10.46875 -11.671875 L 10.46875 0 L 8.890625 0 L 8.890625 -5.5625 L 3.15625 -5.5625 L 3.15625 0 L 1.578125 0 Z M 1.578125 -11.671875 "/>
</symbol>
</g>
</defs>
<g id="surface19597">
<rect x="0" y="0" width="300" height="300" style="fill:rgb(100%,100%,100%);fill-opacity:1;stroke:none;"/>
<path style="fill:none;stroke-width:1.2;stroke-linecap:butt;stroke-linejoin:miter;stroke:rgb(100%,0%,0%);stroke-opacity:1;stroke-miterlimit:10;" d="M 62.207031 180.941406 L 79.382812 172.527344 "/>
<path style="fill:none;stroke-width:1.2;stroke-linecap:butt;stroke-linejoin:miter;stroke:rgb(0%,0%,0%);stroke-opacity:1;stroke-miterlimit:10;" d="M 79.382812 172.527344 L 96.554688 164.113281 "/>
<path style="fill:none;stroke-width:1.2;stroke-linecap:butt;stroke-linejoin:miter;stroke:rgb(100%,0%,0%);stroke-opacity:1;stroke-miterlimit:10;" d="M 58.246094 172.859375 L 75.421875 164.445312 "/>
<path style="fill:none;stroke-width:1.2;stroke-linecap:butt;stroke-linejoin:miter;stroke:rgb(0%,0%,0%);stroke-opacity:1;stroke-miterlimit:10;" d="M 75.421875 164.445312 L 92.597656 156.03125 "/>
<path style=" stroke:none;fill-rule:nonzero;fill:rgb(100%,100%,100%);fill-opacity:1;" d="M 47.226562 167.402344 L 60.226562 167.402344 L 60.226562 186.402344 L 47.226562 186.402344 Z M 47.226562 167.402344 "/>
<g style="fill:rgb(100%,0%,0%);fill-opacity:1;">
  <use xlink:href="#glyph0-1" x="47.226562" y="182.253906"/>
</g>
<path style="fill:none;stroke-width:1.2;stroke-linecap:butt;stroke-linejoin:miter;stroke:rgb(0%,0%,0%);stroke-opacity:1;stroke-miterlimit:10;" d="M 94.574219 160.074219 L 110.449219 170.738281 "/>
<path style="fill:none;stroke-width:1.2;stroke-linecap:butt;stroke-linejoin:miter;stroke:rgb(0%,0%,100%);stroke-opacity:1;stroke-miterlimit:10;" d="M 110.449219 170.738281 L 126.324219 181.40625 "/>
<path style="fill:none;stroke-width:1.2;stroke-linecap:butt;stroke-linejoin:miter;stroke:rgb(0%,0%,0%);stroke-opacity:1;stroke-miterlimit:10;" d="M 94.574219 160.074219 L 97.175781 121.910156 "/>
<path style="fill:none;stroke-width:1.2;stroke-linecap:butt;stroke-linejoin:miter;stroke:rgb(0%,0%,100%);stroke-opacity:1;stroke-miterlimit:10;" d="M 126.324219 181.40625 L 143.5 172.992188 "/>
<path style="fill:none;stroke-width:1.2;stroke-linecap:butt;stroke-linejoin:miter;stroke:rgb(0%,0%,0%);stroke-opacity:1;stroke-miterlimit:10;" d="M 143.5 172.992188 L 160.671875 164.578125 "/>
<path style="fill:none;stroke-width:1.2;stroke-linecap:butt;stroke-linejoin:miter;stroke:rgb(0%,0%,0%);stroke-opacity:1;stroke-miterlimit:10;" d="M 123.722656 219.566406 L 125.023438 200.488281 "/>
<path style="fill:none;stroke-width:1.2;stroke-linecap:butt;stroke-linejoin:miter;stroke:rgb(0%,0%,100%);stroke-opacity:1;stroke-miterlimit:10;" d="M 125.023438 200.488281 L 126.324219 181.40625 "/>
<path style=" stroke:none;fill-rule:nonzero;fill:rgb(100%,100%,100%);fill-opacity:1;" d="M 120.324219 171.90625 L 132.324219 171.90625 L 132.324219 190.90625 L 120.324219 190.90625 Z M 120.324219 171.90625 "/>
<g style="fill:rgb(0%,0%,100%);fill-opacity:1;">
  <use xlink:href="#glyph0-2" x="120.324219" y="186.757812"/>
</g>
<path style="fill:none;stroke-width:1.2;stroke-linecap:butt;stroke-linejoin:miter;stroke:rgb(0%,0%,0%);stroke-opacity:1;stroke-miterlimit:10;" d="M 160.671875 164.578125 L 192.421875 185.910156 "/>
<path style="fill:none;stroke-width:1;stroke-linecap:butt;stroke-linejoin:miter;stroke:rgb(0%,0%,0%);stroke-opacity:1;stroke-miterlimit:10;" d="M 192.421875 185.910156 L 192.421875 185.910156 M 195.304688 185.078125 L 194.847656 184.140625 M 198.1875 184.246094 L 197.269531 182.375 M 201.070312 183.414062 L 199.691406 180.605469 M 203.953125 182.582031 L 202.117188 178.835938 M 206.835938 181.75 L 204.539062 177.070312 M 209.71875 180.917969 L 206.964844 175.300781 M 212.597656 180.089844 L 209.386719 173.535156 M 215.480469 179.257812 L 211.8125 171.765625 M 218.363281 178.425781 L 214.234375 169.996094 M 221.246094 177.59375 L 216.660156 168.230469 M 224.128906 176.761719 L 219.082031 166.460938 M 227.011719 175.929688 L 221.507812 164.695312 M 229.742188 175.140625 L 223.800781 163.019531 "/>
<path style="fill:none;stroke-width:1.2;stroke-linecap:butt;stroke-linejoin:miter;stroke:rgb(0%,0%,0%);stroke-opacity:1;stroke-miterlimit:10;" d="M 192.421875 185.910156 L 189.820312 224.070312 "/>
<path style="fill:none;stroke-width:1.2;stroke-linecap:butt;stroke-linejoin:miter;stroke:rgb(0%,0%,100%);stroke-opacity:1;stroke-miterlimit:10;" d="M 226.769531 169.082031 L 242.644531 179.746094 "/>
<path style="fill:none;stroke-width:1.2;stroke-linecap:butt;stroke-linejoin:miter;stroke:rgb(0%,0%,0%);stroke-opacity:1;stroke-miterlimit:10;" d="M 242.644531 179.746094 L 258.519531 190.414062 "/>
<path style="fill:none;stroke-width:1.2;stroke-linecap:butt;stroke-linejoin:miter;stroke:rgb(0%,0%,100%);stroke-opacity:1;stroke-miterlimit:10;" d="M 226.769531 169.082031 L 228.070312 150 "/>
<path style="fill:none;stroke-width:1.2;stroke-linecap:butt;stroke-linejoin:miter;stroke:rgb(0%,0%,0%);stroke-opacity:1;stroke-miterlimit:10;" d="M 228.070312 150 L 229.371094 130.917969 "/>
<path style=" stroke:none;fill-rule:nonzero;fill:rgb(100%,100%,100%);fill-opacity:1;" d="M 220.769531 159.582031 L 232.769531 159.582031 L 232.769531 178.582031 L 220.769531 178.582031 Z M 220.769531 159.582031 "/>
<g style="fill:rgb(0%,0%,100%);fill-opacity:1;">
  <use xlink:href="#glyph0-2" x="220.769531" y="174.433594"/>
</g>
<path style="fill:none;stroke-width:1.2;stroke-linecap:butt;stroke-linejoin:miter;stroke:rgb(0%,0%,0%);stroke-opacity:1;stroke-miterlimit:10;" d="M 229.371094 130.917969 L 246.546875 122.503906 "/>
<path style="fill:none;stroke-width:1.2;stroke-linecap:butt;stroke-linejoin:miter;stroke:rgb(0%,0%,100%);stroke-opacity:1;stroke-miterlimit:10;" d="M 246.546875 122.503906 L 263.71875 114.089844 "/>
<path style="fill:none;stroke-width:1.2;stroke-linecap:butt;stroke-linejoin:miter;stroke:rgb(0%,0%,0%);stroke-opacity:1;stroke-miterlimit:10;" d="M 228.847656 121.152344 L 242.585938 114.421875 "/>
<path style="fill:none;stroke-width:1.2;stroke-linecap:butt;stroke-linejoin:miter;stroke:rgb(0%,0%,100%);stroke-opacity:1;stroke-miterlimit:10;" d="M 242.585938 114.421875 L 256.324219 107.691406 "/>
<path style="fill:none;stroke-width:1.2;stroke-linecap:butt;stroke-linejoin:miter;stroke:rgb(0%,0%,0%);stroke-opacity:1;stroke-miterlimit:10;" d="M 197.621094 109.585938 L 229.371094 130.917969 "/>
<path style="fill:none;stroke-width:1.2;stroke-linecap:butt;stroke-linejoin:miter;stroke:rgb(0%,0%,100%);stroke-opacity:1;stroke-miterlimit:10;" d="M 263.71875 114.089844 L 265.019531 95.007812 "/>
<path style="fill:none;stroke-width:1.2;stroke-linecap:butt;stroke-linejoin:miter;stroke:rgb(0%,0%,0%);stroke-opacity:1;stroke-miterlimit:10;" d="M 265.019531 95.007812 L 266.320312 75.929688 "/>
<path style=" stroke:none;fill-rule:nonzero;fill:rgb(100%,100%,100%);fill-opacity:1;" d="M 257.71875 104.589844 L 269.71875 104.589844 L 269.71875 123.589844 L 257.71875 123.589844 Z M 257.71875 104.589844 "/>
<g style="fill:rgb(0%,0%,100%);fill-opacity:1;">
  <use xlink:href="#glyph0-2" x="257.71875" y="119.441406"/>
</g>
<path style="fill:none;stroke-width:1.2;stroke-linecap:butt;stroke-linejoin:miter;stroke:rgb(0%,0%,0%);stroke-opacity:1;stroke-miterlimit:10;" d="M 266.320312 75.929688 L 250.445312 65.261719 "/>
<path style="fill:none;stroke-width:1.2;stroke-linecap:butt;stroke-linejoin:miter;stroke:rgb(0%,0%,100%);stroke-opacity:1;stroke-miterlimit:10;" d="M 250.445312 65.261719 L 234.574219 54.597656 "/>
<path style="fill:none;stroke-width:1.2;stroke-linecap:butt;stroke-linejoin:miter;stroke:rgb(0%,0%,0%);stroke-opacity:1;stroke-miterlimit:10;" d="M 258.125 81.265625 L 245.425781 72.734375 "/>
<path style="fill:none;stroke-width:1.2;stroke-linecap:butt;stroke-linejoin:miter;stroke:rgb(0%,0%,100%);stroke-opacity:1;stroke-miterlimit:10;" d="M 245.425781 72.734375 L 232.726562 64.199219 "/>
<path style="fill:none;stroke-width:1.2;stroke-linecap:butt;stroke-linejoin:miter;stroke:rgb(0%,0%,100%);stroke-opacity:1;stroke-miterlimit:10;" d="M 234.574219 54.597656 L 217.398438 63.011719 "/>
<path style="fill:none;stroke-width:1.2;stroke-linecap:butt;stroke-linejoin:miter;stroke:rgb(0%,0%,0%);stroke-opacity:1;stroke-miterlimit:10;" d="M 217.398438 63.011719 L 200.222656 71.425781 "/>
<path style=" stroke:none;fill-rule:nonzero;fill:rgb(100%,100%,100%);fill-opacity:1;" d="M 228.574219 45.097656 L 240.574219 45.097656 L 240.574219 64.097656 L 228.574219 64.097656 Z M 228.574219 45.097656 "/>
<g style="fill:rgb(0%,0%,100%);fill-opacity:1;">
  <use xlink:href="#glyph0-2" x="228.574219" y="59.949219"/>
</g>
<path style="fill:none;stroke-width:1.2;stroke-linecap:butt;stroke-linejoin:miter;stroke:rgb(0%,0%,0%);stroke-opacity:1;stroke-miterlimit:10;" d="M 200.222656 71.425781 L 182.476562 64.292969 "/>
<path style="fill:none;stroke-width:1.2;stroke-linecap:butt;stroke-linejoin:miter;stroke:rgb(0%,0%,100%);stroke-opacity:1;stroke-miterlimit:10;" d="M 182.476562 64.292969 L 164.734375 57.160156 "/>
<path style="fill:none;stroke-width:1.2;stroke-linecap:butt;stroke-linejoin:miter;stroke:rgb(0%,0%,0%);stroke-opacity:1;stroke-miterlimit:10;" d="M 197.621094 109.585938 L 200.222656 71.425781 "/>
<path style="fill:none;stroke-width:1.2;stroke-linecap:butt;stroke-linejoin:miter;stroke:rgb(0%,0%,0%);stroke-opacity:1;stroke-miterlimit:10;" d="M 206.863281 106.382812 L 208.941406 75.851562 "/>
<path style="fill:none;stroke-width:1.2;stroke-linecap:butt;stroke-linejoin:miter;stroke:rgb(0%,0%,100%);stroke-opacity:1;stroke-miterlimit:10;" d="M 164.734375 57.160156 L 152.464844 71.832031 "/>
<path style="fill:none;stroke-width:1.2;stroke-linecap:butt;stroke-linejoin:miter;stroke:rgb(0%,0%,0%);stroke-opacity:1;stroke-miterlimit:10;" d="M 152.464844 71.832031 L 140.199219 86.503906 "/>
<path style=" stroke:none;fill-rule:nonzero;fill:rgb(100%,100%,100%);fill-opacity:1;" d="M 152.734375 47.660156 L 176.734375 47.660156 L 176.734375 66.660156 L 152.734375 66.660156 Z M 152.734375 47.660156 "/>
<g style="fill:rgb(0%,0%,100%);fill-opacity:1;">
  <use xlink:href="#glyph0-2" x="152.734375" y="62.511719"/>
  <use xlink:href="#glyph0-3" x="164.703125" y="62.511719"/>
</g>
<path style="fill:none;stroke-width:1.2;stroke-linecap:butt;stroke-linejoin:miter;stroke:rgb(0%,0%,0%);stroke-opacity:1;stroke-miterlimit:10;" d="M 140.199219 86.503906 L 160.527344 118.90625 "/>
<path style="fill:none;stroke-width:1.2;stroke-linecap:butt;stroke-linejoin:miter;stroke:rgb(0%,0%,0%);stroke-opacity:1;stroke-miterlimit:10;" d="M 149.855469 84.960938 L 166.117188 110.882812 "/>
<path style="fill:none;stroke-width:1.2;stroke-linecap:butt;stroke-linejoin:miter;stroke:rgb(0%,0%,0%);stroke-opacity:1;stroke-miterlimit:10;" d="M 160.527344 118.90625 L 197.621094 109.585938 "/>
<path style="fill:none;stroke-width:1.2;stroke-linecap:butt;stroke-linejoin:miter;stroke:rgb(0%,0%,0%);stroke-opacity:1;stroke-miterlimit:10;" d="M 189.820312 224.070312 L 155.472656 240.898438 "/>
<path style="fill:none;stroke-width:1;stroke-linecap:butt;stroke-linejoin:miter;stroke:rgb(0%,0%,0%);stroke-opacity:1;stroke-miterlimit:10;" d="M 189.820312 224.070312 L 189.820312 224.070312 M 191.984375 226.152344 L 192.566406 225.285156 M 194.144531 228.230469 L 195.308594 226.5 M 196.304688 230.3125 L 198.050781 227.714844 M 198.46875 232.394531 L 200.792969 228.929688 M 200.628906 234.472656 L 203.535156 230.144531 M 202.789062 236.554688 L 206.28125 231.359375 M 204.953125 238.632812 L 209.023438 232.574219 M 207.113281 240.714844 L 211.765625 233.789062 M 209.273438 242.796875 L 214.507812 235.003906 M 211.4375 244.875 L 217.25 236.21875 M 213.597656 246.957031 L 219.996094 237.433594 M 215.757812 249.035156 L 222.738281 238.652344 M 217.804688 251.007812 L 225.335938 239.800781 "/>
<path style="fill:none;stroke-width:1.2;stroke-linecap:butt;stroke-linejoin:miter;stroke:rgb(0%,0%,0%);stroke-opacity:1;stroke-miterlimit:10;" d="M 155.472656 240.898438 L 123.722656 219.566406 "/>
<path style="fill:none;stroke-width:1.2;stroke-linecap:butt;stroke-linejoin:miter;stroke:rgb(0%,0%,0%);stroke-opacity:1;stroke-miterlimit:10;" d="M 97.175781 121.910156 L 65.425781 100.578125 "/>
<path style="fill:none;stroke-width:1.2;stroke-linecap:butt;stroke-linejoin:miter;stroke:rgb(0%,0%,0%);stroke-opacity:1;stroke-miterlimit:10;" d="M 65.425781 100.578125 L 49.554688 89.914062 "/>
<path style="fill:none;stroke-width:1.2;stroke-linecap:butt;stroke-linejoin:miter;stroke:rgb(0%,0%,100%);stroke-opacity:1;stroke-miterlimit:10;" d="M 49.554688 89.914062 L 33.679688 79.246094 "/>
<path style="fill:none;stroke-width:1.2;stroke-linecap:butt;stroke-linejoin:miter;stroke:rgb(0%,0%,0%);stroke-opacity:1;stroke-miterlimit:10;" d="M 67.273438 90.976562 L 54.574219 82.441406 "/>
<path style="fill:none;stroke-width:1.2;stroke-linecap:butt;stroke-linejoin:miter;stroke:rgb(0%,0%,100%);stroke-opacity:1;stroke-miterlimit:10;" d="M 54.574219 82.441406 L 41.875 73.910156 "/>
<path style="fill:none;stroke-width:1.2;stroke-linecap:butt;stroke-linejoin:miter;stroke:rgb(0%,0%,0%);stroke-opacity:1;stroke-miterlimit:10;" d="M 57.234375 105.914062 L 44.535156 97.382812 "/>
<path style="fill:none;stroke-width:1.2;stroke-linecap:butt;stroke-linejoin:miter;stroke:rgb(0%,0%,100%);stroke-opacity:1;stroke-miterlimit:10;" d="M 44.535156 97.382812 L 31.835938 88.847656 "/>
<path style=" stroke:none;fill-rule:nonzero;fill:rgb(100%,100%,100%);fill-opacity:1;" d="M 21.679688 69.746094 L 33.679688 69.746094 L 33.679688 88.746094 L 21.679688 88.746094 Z M 21.679688 69.746094 "/>
<g style="fill:rgb(0%,0%,100%);fill-opacity:1;">
  <use xlink:href="#glyph0-2" x="21.679688" y="84.597656"/>
</g>
</g>
</svg>

<svg xmlns="http://www.w3.org/2000/svg" xmlns:xlink="http://www.w3.org/1999/xlink" width="300pt" height="300pt" viewBox="0 0 300 300"><defs><symbol overflow="visible"><path d="M.797 2.828v-14.11h8V2.83zm.906-.89h6.203v-12.33H1.703zm0 0"/></symbol><symbol overflow="visible" id="a"><path d="M6.313-10.594c-1.15 0-2.06.43-2.735 1.28-.68.857-1.015 2.017-1.015 3.486 0 1.47.335 2.633 1.015 3.484.676.856 1.586 1.28 2.735 1.28 1.144.002 2.05-.424 2.718-1.28.665-.85 1-2.015 1-3.484 0-1.47-.335-2.63-1-3.484-.667-.852-1.573-1.282-2.717-1.282zm0-1.28c1.632 0 2.94.546 3.92 1.64.978 1.093 1.47 2.562 1.47 4.406 0 1.844-.492 3.32-1.47 4.422-.98 1.093-2.288 1.64-3.92 1.64-1.65 0-2.96-.546-3.938-1.64-.98-1.102-1.47-2.578-1.47-4.422 0-1.844.49-3.313 1.47-4.406.977-1.094 2.29-1.64 3.938-1.64zm0 0"/></symbol><symbol overflow="visible" id="b"><path d="M1.578-11.672h2.125l5.172 9.766v-9.766h1.53V0H8.282L3.11-9.766V0H1.577zm0 0"/></symbol><symbol overflow="visible" id="c"><path d="M1.578-11.672h1.578v4.78H8.89v-4.78h1.58V0H8.89v-5.563H3.157V0H1.578zm0 0"/></symbol></defs><g><path fill="#fff" d="M0 0h300v300H0z"/><path d="M62.207 180.94l17.176-8.413" stroke-width="1.2" stroke="#f00" stroke-miterlimit="10" fill="none"/><path d="M79.383 172.527l17.172-8.414" stroke-width="1.2" stroke="#000" stroke-miterlimit="10" fill="none"/><path d="M58.246 172.86l17.176-8.415" stroke-width="1.2" stroke="#f00" stroke-miterlimit="10" fill="none"/><path d="M75.422 164.445l17.176-8.414" stroke-width="1.2" stroke="#000" stroke-miterlimit="10" fill="none"/><path d="M47.227 167.402h13v19h-13zm0 0" fill="#fff"/><use xlink:href="#a" x="47.227" y="182.254" fill="#f00"/><path d="M94.574 160.074l15.875 10.664" stroke-width="1.2" stroke="#000" stroke-miterlimit="10" fill="none"/><path d="M110.45 170.738l15.874 10.668" stroke-width="1.2" stroke="#00f" stroke-miterlimit="10" fill="none"/><path d="M94.574 160.074l2.602-38.164" stroke-width="1.2" stroke="#000" stroke-miterlimit="10" fill="none"/><path d="M126.324 181.406l17.176-8.414" stroke-width="1.2" stroke="#00f" stroke-miterlimit="10" fill="none"/><path d="M143.5 172.992l17.172-8.414M123.723 219.566l1.3-19.078" stroke-width="1.2" stroke="#000" stroke-miterlimit="10" fill="none"/><path d="M125.023 200.488l1.3-19.082" stroke-width="1.2" stroke="#00f" stroke-miterlimit="10" fill="none"/><path d="M120.324 171.906h12v19h-12zm0 0" fill="#fff"/><use xlink:href="#b" x="120.324" y="186.758" fill="#00f"/><path d="M160.672 164.578l31.75 21.332" stroke-width="1.2" stroke="#000" stroke-miterlimit="10" fill="none"/><path d="M192.422 185.91m2.883-.832l-.457-.937m3.34.106l-.918-1.87m3.8 1.038l-1.38-2.81m4.263 1.978l-1.836-3.746m4.72 2.914l-2.298-4.68m5.18 3.848l-2.755-5.617m5.633 4.79l-3.21-6.555m6.092 5.723l-3.667-7.492m6.55 6.66l-4.13-8.43m7.013 7.598l-4.586-9.364m7.47 8.532l-5.048-10.3m7.93 9.468l-5.504-11.235m8.234 10.446l-5.94-12.12" stroke="#000" stroke-miterlimit="10" fill="none"/><path d="M192.422 185.91l-2.602 38.16" stroke-width="1.2" stroke="#000" stroke-miterlimit="10" fill="none"/><path d="M226.77 169.082l15.875 10.664" stroke-width="1.2" stroke="#00f" stroke-miterlimit="10" fill="none"/><path d="M242.645 179.746l15.875 10.668" stroke-width="1.2" stroke="#000" stroke-miterlimit="10" fill="none"/><path d="M226.77 169.082l1.3-19.082" stroke-width="1.2" stroke="#00f" stroke-miterlimit="10" fill="none"/><path d="M228.07 150l1.3-19.082" stroke-width="1.2" stroke="#000" stroke-miterlimit="10" fill="none"/><path d="M220.77 159.582h12v19h-12zm0 0" fill="#fff"/><use xlink:href="#b" x="220.77" y="174.434" fill="#00f"/><path d="M229.37 130.918l17.177-8.414" stroke-width="1.2" stroke="#000" stroke-miterlimit="10" fill="none"/><path d="M246.547 122.504l17.172-8.414" stroke-width="1.2" stroke="#00f" stroke-miterlimit="10" fill="none"/><path d="M228.848 121.152l13.738-6.73" stroke-width="1.2" stroke="#000" stroke-miterlimit="10" fill="none"/><path d="M242.586 114.422l13.738-6.73" stroke-width="1.2" stroke="#00f" stroke-miterlimit="10" fill="none"/><path d="M197.62 109.586l31.75 21.332" stroke-width="1.2" stroke="#000" stroke-miterlimit="10" fill="none"/><path d="M263.72 114.09l1.3-19.082" stroke-width="1.2" stroke="#00f" stroke-miterlimit="10" fill="none"/><path d="M265.02 95.008l1.3-19.078" stroke-width="1.2" stroke="#000" stroke-miterlimit="10" fill="none"/><path d="M257.72 104.59h12v19h-12zm0 0" fill="#fff"/><use xlink:href="#b" x="257.719" y="119.441" fill="#00f"/><path d="M266.32 75.93l-15.875-10.668" stroke-width="1.2" stroke="#000" stroke-miterlimit="10" fill="none"/><path d="M250.445 65.262l-15.87-10.664" stroke-width="1.2" stroke="#00f" stroke-miterlimit="10" fill="none"/><path d="M258.125 81.266l-12.7-8.532" stroke-width="1.2" stroke="#000" stroke-miterlimit="10" fill="none"/><path d="M245.426 72.734l-12.7-8.535M234.574 54.598l-17.176 8.414" stroke-width="1.2" stroke="#00f" stroke-miterlimit="10" fill="none"/><path d="M217.398 63.012l-17.175 8.414" stroke-width="1.2" stroke="#000" stroke-miterlimit="10" fill="none"/><path d="M228.574 45.098h12v19h-12zm0 0" fill="#fff"/><use xlink:href="#b" x="228.574" y="59.949" fill="#00f"/><path d="M200.223 71.426l-17.746-7.133" stroke-width="1.2" stroke="#000" stroke-miterlimit="10" fill="none"/><path d="M182.477 64.293l-17.743-7.133" stroke-width="1.2" stroke="#00f" stroke-miterlimit="10" fill="none"/><path d="M197.62 109.586l2.603-38.16M206.863 106.383l2.078-30.53" stroke-width="1.2" stroke="#000" stroke-miterlimit="10" fill="none"/><path d="M164.734 57.16l-12.27 14.672" stroke-width="1.2" stroke="#00f" stroke-miterlimit="10" fill="none"/><path d="M152.465 71.832L140.2 86.504" stroke-width="1.2" stroke="#000" stroke-miterlimit="10" fill="none"/><path d="M152.734 47.66h24v19h-24zm0 0" fill="#fff"/><g fill="#00f"><use xlink:href="#b" x="152.734" y="62.512"/><use xlink:href="#c" x="164.703" y="62.512"/></g><path d="M140.2 86.504l20.327 32.402M149.855 84.96l16.262 25.923M160.527 118.906l37.094-9.32M189.82 224.07l-34.347 16.828" stroke-width="1.2" stroke="#000" stroke-miterlimit="10" fill="none"/><path d="M189.82 224.07m2.164 2.082l.582-.867m1.58 2.945l1.163-1.73m.995 3.813l1.746-2.598m.42 4.68l2.323-3.465m-.164 5.543l2.905-4.328m-.746 6.41l3.49-5.196m-1.327 7.273l4.07-6.06m-1.91 8.142l4.653-6.926m-2.493 9.007l5.235-7.793m-3.07 9.87l5.812-8.655m-3.652 10.737l6.398-9.523m-4.238 11.6l6.98-10.382m-4.933 12.356l7.53-11.207" stroke="#000" stroke-miterlimit="10" fill="none"/><path d="M155.473 240.898l-31.75-21.332M97.176 121.91l-31.75-21.332M65.426 100.578l-15.87-10.664" stroke-width="1.2" stroke="#000" stroke-miterlimit="10" fill="none"/><path d="M49.555 89.914L33.68 79.246" stroke-width="1.2" stroke="#00f" stroke-miterlimit="10" fill="none"/><path d="M67.273 90.977l-12.7-8.536" stroke-width="1.2" stroke="#000" stroke-miterlimit="10" fill="none"/><path d="M54.574 82.44l-12.7-8.53" stroke-width="1.2" stroke="#00f" stroke-miterlimit="10" fill="none"/><path d="M57.234 105.914l-12.7-8.53" stroke-width="1.2" stroke="#000" stroke-miterlimit="10" fill="none"/><path d="M44.535 97.383l-12.7-8.535" stroke-width="1.2" stroke="#00f" stroke-miterlimit="10" fill="none"/><path d="M21.68 69.746h12v19h-12zm0 0" fill="#fff"/><use xlink:href="#b" x="21.68" y="84.598" fill="#00f"/></g></svg>
